X:1
T:On the Rock
T:On the Rock
T:Barney Elliott Warren
T:Barney Elliott Warren, 1897
T:Public Domain Courtesy of the Cyber Hymnal™
T:Public Domain Courtesy of the Cyber Hymnal™
C:Barney Elliott Warren
Z:Public Domain
Z:Courtesy of the Cyber Hymnal™
%%score ( 1 2 ) 3
L:1/8
Q:1/4=102
M:4/4
K:C
V:1 treble 
V:2 treble 
V:3 bass 
V:1
 [EG]>[EG] | [Ec]>[Ec] [Ec]>[Ec] [Ec]2 [Fd]2 | [Ge]4 [Ec]2 C>[CD] | %3
w: 1.~Are you|build- ing on the Rock e-|ter- nal? Are you|
w: 2.~Are you|build- ing on a strong foun-|da- tion? Can you|
w: 3.~Are you|build- ing on a strong foun-|da- tion, With an|
w: 4.~Are you|build- ing on a strong foun-|da- tion? Can you|
 [CE]>[C^D] [CE]>[=DF] [CE]2 [B,D]2 | [G,C]6 [EG]>[EG] | [Ec]>[Ec] [Ec]>[Ec] [Ec]2 [Fd]2 | %6
w: build- ing on the sink- ing|sand? Are you|go- ing to that home su-|
w: stand the stor- my sea of|life? ’Mid the|surg- ing bil- lows’ wild com-|
w: an- chor that will keep the|soul? Liv- ing|in His love and truth un-|
w: stand the aw- ful judg- ment|shock? Are you|ground- ed in His great sal-|
 [Ge]4 [Ec]2 C>[CD] | [CE]>[C^D] [CE]>[=DF] [CE]2 [B,D]2 | [G,C]6 ||"^Refrain" [CE]>[DF] | %10
w: per- nal, In that|bright- er far off hap- py|land?||
w: mo- tion, Do you|con- quer in the rag- ing|strife?|Are you|
w: shak- en, Ground- ed|firm and deep tho’ bil- lows|roll?||
w: va- tion, Fast- ened|like an an- chor to the|Rock?||
 [EG]6 [Ge]2 | [Ec]2 [EG]2 [EG]2 [CE]>[EG] | [DF]6 [EG]2 | [DF]2 [B,D]2 [CE]2 [CE]>[DF] | %14
w: ||||
w: build- ing|on the Rock, Are you|build- ing|on the Rock? Are you|
w: ||||
w: ||||
 [EG]6 [Ge]2 | [Ec]2 [EG]2 [FA]2 ([Ac]>[FA]) | [EG]3 [Ge] [Fd]2 [FB]2 | [Ec]6 |] %18
w: ||||
w: build- ing|on the Rock, Or, *|on the sink- ing|sand?|
w: ||||
w: ||||
V:2
 x2 | x8 | x6 C3/2 x/ | x8 | x8 | x8 | x6 C3/2 x/ | x8 | x6 || x2 | x8 | x8 | x8 | x8 | x8 | x8 | %16
 x6 (3(DEF) | x6 |] %18
V:3
 [C,C]>[C,C] | [C,G,]>[C,G,] [C,G,]>[C,G,] [C,G,]2 [C,G,]2 | [C,C]4 [C,G,]2 [C,E,]>[C,F,] | %3
 [C,G,]>[C,^F,] [C,G,]>[C,G,] [G,,G,]2 [G,,=F,]2 | [C,E,]6 [C,C]>[C,C] | %5
 [C,G,]>[C,G,] [C,G,]>[C,G,] [C,G,]2 [C,G,]2 | [C,C]4 [C,G,]2 [C,E,]>[C,F,] | %7
 [C,G,]>[C,^F,] [C,G,]>[C,G,] [G,,G,]2 [G,,=F,]2 | [C,E,]6 || [C,G,]>[C,G,] | %10
 ([C,C]2 [C,C]2 [C,C]2) [C,C]2 | [C,C]2 [C,C]2 [C,C]2 [C,G,]>[C,G,] | %12
 ([G,,G,]2 [G,,G,]2 [G,,G,]2) [G,,G,]2 | [G,,G,]2 [G,,G,]2 [C,G,]2 [C,G,]>[C,G,] | %14
 ([C,C]2 [C,C]2 [C,C]2) [C,C]2 | [C,C]2 [C,C]2 [F,C]2 [F,C]2 | [G,C]3 [G,C] [G,,G,B,]2 [G,,G,]2 | %17
 [C,G,]6 |] %18

